packages/foundations/assets/icons/functional/images/environment/globe_28.svg

<svg width="28" height="28" viewBox="0 0 28 28" fill="none" xmlns="http://www.w3.org/2000/svg">
<g clip-path="url(#clip0_185_800)">
<path fill-rule="evenodd" clip-rule="evenodd" d="M14 1.75C20.7539 1.75 26.25 7.24614 26.25 14C26.25 20.7539 20.7539 26.25 14 26.25C7.24611 26.25 1.75006 20.7539 1.75006 14C1.75006 7.24614 7.24611 1.75 14 1.75ZM18.3477 14.875H9.5156C10.0352 19.6054 13.2617 23.4609 14.164 24.5C19.5781 24.3906 24.0078 20.207 24.4453 14.875H20.0979C20.043 16.707 19.6055 18.5664 18.7852 20.4804C18.6484 20.8085 18.3203 21 17.9922 21C17.4727 21 17.0899 20.5898 17.0899 20.125C17.0899 20.0156 17.1172 19.8789 17.1718 19.7695C17.9102 18.1016 18.293 16.4609 18.3477 14.875ZM7.7656 14.875H3.55466C3.93747 19.4688 7.3008 23.2422 11.7031 24.2266C10.2265 22.2851 8.14841 18.8945 7.7656 14.875ZM16.0781 3.71875C17.5547 5.6602 19.6875 9.07812 20.0703 13.125H24.4453C24.0625 8.44926 20.5899 4.62114 16.0781 3.71875ZM13.6718 3.52739C8.31247 3.69145 3.99216 7.8477 3.55466 13.125H7.71091C7.79299 11.293 8.23049 9.43364 9.02341 7.51958C9.16017 7.19145 9.4883 7 9.81642 7C10.3906 7 10.7187 7.4102 10.7187 7.875C10.7187 7.98438 10.6914 8.12114 10.6367 8.23051C9.9258 9.89844 9.54299 11.5391 9.46091 13.125H18.293C17.7734 8.42188 14.6015 4.53906 13.6718 3.52739Z" fill="#1A1C1F"/>
</g>
<defs>
<clipPath id="clip0_185_800">
<rect width="28" height="28" fill="white"/>
</clipPath>
</defs>
</svg>

<svg xmlns="http://www.w3.org/2000/svg" width="28" height="28" fill="none"><g clip-path="url(#a)"><path fill="#1A1C1F" fill-rule="evenodd" d="M14 1.75c6.754 0 12.25 5.496 12.25 12.25S20.754 26.25 14 26.25 1.75 20.754 1.75 14 7.246 1.75 14 1.75m4.348 13.125H9.516c.52 4.73 3.746 8.586 4.648 9.625 5.414-.11 9.844-4.293 10.281-9.625h-4.347c-.055 1.832-.492 3.691-1.313 5.605a.86.86 0 0 1-.793.52.887.887 0 0 1-.902-.875c0-.11.027-.246.082-.355.738-1.668 1.121-3.31 1.176-4.895m-10.582 0H3.555c.382 4.594 3.746 8.367 8.148 9.352-1.476-1.942-3.555-5.332-3.937-9.352m8.312-11.156c1.477 1.941 3.61 5.36 3.992 9.406h4.375c-.383-4.676-3.855-8.504-8.367-9.406m-2.406-.192c-5.36.164-9.68 4.32-10.117 9.598H7.71c.082-1.832.52-3.691 1.312-5.605A.86.86 0 0 1 9.816 7c.575 0 .903.41.903.875 0 .11-.028.246-.082.356-.711 1.667-1.094 3.308-1.176 4.894h8.832c-.52-4.703-3.691-8.586-4.621-9.598" clip-rule="evenodd"/></g><defs><clipPath id="a"><path fill="#fff" d="M0 0h28v28H0z"/></clipPath></defs></svg>
